icons/evolvere-blue-folders-flat-vivid-dark-fallback/categories/64/applications-multimedia.svg

<?xml version="1.0" encoding="UTF-8" standalone="no"?>
<!-- Created with Inkscape (http://www.inkscape.org/) -->

<svg
   xmlns:dc="http://purl.org/dc/elements/1.1/"
   xmlns:cc="http://creativecommons.org/ns#"
   xmlns:rdf="http://www.w3.org/1999/02/22-rdf-syntax-ns#"
   xmlns:svg="http://www.w3.org/2000/svg"
   xmlns="http://www.w3.org/2000/svg"
   xmlns:sodipodi="http://sodipodi.sourceforge.net/DTD/sodipodi-0.dtd"
   xmlns:inkscape="http://www.inkscape.org/namespaces/inkscape"
   width="64"
   height="64"
   id="svg13094"
   version="1.1"
   inkscape:version="0.91+devel r"
   sodipodi:docname="applications-multimedia.svg">
  <sodipodi:namedview
     id="base"
     pagecolor="#ffffff"
     bordercolor="#666666"
     borderopacity="1.0"
     inkscape:pageopacity="0"
     inkscape:pageshadow="2"
     inkscape:zoom="11.313709"
     inkscape:cx="30.975037"
     inkscape:cy="32.518001"
     inkscape:document-units="px"
     inkscape:current-layer="svg13094"
     showgrid="true"
     inkscape:snap-bbox="true"
     inkscape:bbox-paths="true"
     inkscape:bbox-nodes="true"
     inkscape:snap-bbox-edge-midpoints="true"
     inkscape:snap-bbox-midpoints="true"
     inkscape:object-paths="true"
     inkscape:snap-intersection-paths="true"
     inkscape:object-nodes="true"
     inkscape:snap-smooth-nodes="true"
     inkscape:snap-midpoints="true"
     inkscape:snap-object-midpoints="true"
     inkscape:snap-center="true"
     showguides="true"
     inkscape:guide-bbox="true"
     inkscape:window-width="1920"
     inkscape:window-height="1023"
     inkscape:window-x="-10"
     inkscape:window-y="35"
     inkscape:window-maximized="1"
     inkscape:snap-global="true"
     fit-margin-top="0"
     fit-margin-left="0"
     fit-margin-right="0"
     fit-margin-bottom="0"
     showborder="true"
     inkscape:showpageshadow="false"
     inkscape:snap-page="true">
    <inkscape:grid
       type="xygrid"
       id="grid3075"
       empspacing="5"
       visible="true"
       enabled="true"
       snapvisiblegridlinesonly="true"
       originx="1.6362304e-08px"
       originy="18px" />
  </sodipodi:namedview>
  <defs
     id="defs13096" />
  <metadata
     id="metadata13099">
    <rdf:RDF>
      <cc:Work
         rdf:about="">
        <dc:format>image/svg+xml</dc:format>
        <dc:type
           rdf:resource="http://purl.org/dc/dcmitype/StillImage" />
        <dc:title></dc:title>
      </cc:Work>
    </rdf:RDF>
  </metadata>
  <path
     style="color:#000000;display:inline;overflow:visible;visibility:visible;fill:#42b8b7;fill-opacity:1;fill-rule:nonzero;stroke:none;stroke-width:2.28571415;marker:none;enable-background:accumulate"
     d="M 2,0 0,1 0,2 32,2 64,2 64,1 62,0 32,0 Z"
     id="path6502-7"
     inkscape:connector-curvature="0"
     sodipodi:nodetypes="ccccccccc" />
  <path
     sodipodi:nodetypes="ccccccccccccccccccccccccccccccccccccccccccccccccccccccccccccc"
     inkscape:connector-curvature="0"
     id="path3029"
     d="m 0,2 0,32 0,28 2,2 30,0 30,0 2,-2 0,-28 0,-32 -32,0 z m 4,3 7,0 0,8 -7,0 z m 49,0 7,0 0,8 -7,0 z m -49,12 7,0 0,8 -7,0 z m 49,0 7,0 0,8 -7,0 z m -49,12 7,0 0,8 -7,0 z m 49,0 7,0 0,8 -7,0 z m -49,12 7,0 0,8 -7,0 z m 49,0 7,0 0,8 -7,0 z m -49,12 7,0 0,8 -7,0 z m 49,0 7,0 0,8 -7,0 z"
     style="color:#000000;display:inline;overflow:visible;visibility:visible;fill:#3e6782;fill-opacity:1;fill-rule:nonzero;stroke:none;stroke-width:2.28571415;marker:none;enable-background:accumulate" />
  <path
     inkscape:connector-curvature="0"
     style="color:#000000;display:inline;overflow:visible;visibility:visible;opacity:1;fill:#d57e39;fill-opacity:1;fill-rule:nonzero;stroke:none;stroke-width:1;stroke-linecap:butt;stroke-linejoin:miter;stroke-miterlimit:4;stroke-dasharray:none;stroke-dashoffset:0;stroke-opacity:1;marker:none;enable-background:accumulate"
     d="M 58.158203,0 54.693359,2 7.9277344,29 11,29 11,35 4,35 4,31.267578 0,33.578125 0,34 0,62 2,64 11.306641,64 58.072266,37 60,35.886719 64,33.578125 64,2 64,1 62,0 58.158203,0 Z M 53,5 l 7,0 0,6 -7,0 0,-6 z m 0,12 7,0 0,6 -7,0 0,-6 z m 0,12 7,0 0,6 -7,0 0,-6 z m -49,12 7,0 0,6 -7,0 0,-6 z m 0,12 7,0 0,6 -7,0 0,-6 z"
     id="rect4191" />
  <path
     style="color:#000000;display:inline;overflow:visible;visibility:visible;opacity:1;fill:#7a567c;fill-opacity:1;fill-rule:nonzero;stroke:none;stroke-width:1;stroke-linecap:butt;stroke-linejoin:miter;stroke-miterlimit:4;stroke-dasharray:none;stroke-dashoffset:0;stroke-opacity:1;marker:none;enable-background:accumulate"
     d="M 20.423828 21.785156 L 7.9277344 29 L 11 29 L 11 37 L 4 37 L 4 31.267578 L 0 33.578125 L 0 34 L 0 62 L 2 64 L 11.306641 64 L 44.322266 44.9375 L 20.423828 21.785156 z M 4 41 L 11 41 L 11 49 L 4 49 L 4 41 z M 4 53 L 11 53 L 11 61 L 4 61 L 4 53 z "
     id="path4256" />
  <path
     style="color:#000000;display:inline;overflow:visible;visibility:visible;opacity:1;fill:#645bb8;fill-opacity:1;fill-rule:nonzero;stroke:none;stroke-width:1;stroke-linecap:butt;stroke-linejoin:miter;stroke-miterlimit:4;stroke-dasharray:none;stroke-dashoffset:0;stroke-opacity:1;marker:none;enable-background:accumulate"
     d="M 54.693359 2 L 20.423828 21.785156 L 44.322266 44.9375 L 58.072266 37 L 53 37 L 53 29 L 60 29 L 60 35.886719 L 64 33.578125 L 64 2 L 54.693359 2 z M 53 5 L 60 5 L 60 13 L 53 13 L 53 5 z M 53 17 L 60 17 L 60 25 L 53 25 L 53 17 z "
     id="path4573" />
  <path
     style="color:#000000;display:inline;overflow:visible;visibility:visible;fill:#4f706b;fill-opacity:1;fill-rule:nonzero;stroke:none;stroke-width:2.28571415;marker:none;enable-background:accumulate"
     d="M 0 2 L 0 33.578125 L 4 31.267578 L 4 29 L 7.9277344 29 L 20.423828 21.785156 L 9.2910156 11 L 4 11 L 4 5.875 L 0 2 z M 4 17 L 11 17 L 11 23 L 4 23 L 4 17 z "
     id="path4290" />
  <path
     style="color:#000000;display:inline;overflow:visible;visibility:visible;fill:#467e84;fill-opacity:1;fill-rule:nonzero;stroke:none;stroke-width:2.28571415;marker:none;enable-background:accumulate"
     d="M 0 2 L 4 5.875 L 4 5 L 11 5 L 11 12.65625 L 20.423828 21.785156 L 54.693359 2 L 32 2 L 0 2 z "
     id="path4583" />
  <path
     style="color:#000000;display:inline;overflow:visible;visibility:visible;fill:#5e4f8f;fill-opacity:1;fill-rule:nonzero;stroke:none;stroke-width:2.28571415;marker:none;enable-background:accumulate"
     d="M 44.322266 44.9375 L 11.306641 64 L 62 64 L 62.984375 63.015625 L 58.837891 59 L 53 59 L 53 53.34375 L 44.322266 44.9375 z "
     id="path4284" />
  <path
     style="color:#000000;display:inline;overflow:visible;visibility:visible;fill:#7d46a5;fill-opacity:1;fill-rule:nonzero;stroke:none;stroke-width:2.28571415;marker:none;enable-background:accumulate"
     d="M 64 33.578125 L 60 35.886719 L 60 37 L 58.072266 37 L 44.322266 44.9375 L 53 53.34375 L 53 53 L 60 53 L 60 60.125 L 62.984375 63.015625 L 64 62 L 64 34 L 64 33.578125 z M 53 41 L 60 41 L 60 49 L 53 49 L 53 41 z "
     id="path4578" />
  <g
     id="g3043-5"
     inkscape:export-filename="folder.png"
     inkscape:export-xdpi="90"
     inkscape:export-ydpi="90"
     transform="translate(-0.62500009,0.082283)" />
  <g
     id="scalable-7"
     transform="matrix(1.0385892,0,0,1.0385892,1214.7222,1878.8121)"
     inkscape:label="#g3701"
     style="fill:#ffffff" />
  <path
     id="path4585"
     d="m 4,11 0,2 7,0 0,-2 -7,0 z m 0,12 0,2 7,0 0,-2 -7,0 z"
     style="color:#000000;display:inline;overflow:visible;visibility:visible;fill:#50978c;fill-opacity:1;fill-rule:nonzero;stroke:none;stroke-width:2.28571415;marker:none;enable-background:accumulate"
     inkscape:connector-curvature="0" />
  <path
     style="color:#000000;display:inline;overflow:visible;visibility:visible;fill:#ba6ee2;fill-opacity:1;fill-rule:nonzero;stroke:none;stroke-width:2.28571415;marker:none;enable-background:accumulate"
     d="M 60 35.886719 L 58.072266 37 L 60 37 L 60 35.886719 z M 53 47 L 53 49 L 60 49 L 60 47 L 53 47 z "
     id="path4352" />
  <path
     style="color:#000000;display:inline;overflow:visible;visibility:visible;fill:#8562d1;fill-opacity:1;fill-rule:nonzero;stroke:none;stroke-width:2.28571415;marker:none;enable-background:accumulate"
     d="m 53,59 0,2 7,0 0,-2 -7,0 z"
     id="path4580" />
  <path
     style="color:#000000;display:inline;overflow:visible;visibility:visible;fill:#5b95da;fill-opacity:1;fill-rule:nonzero;stroke:none;stroke-width:2.28571415;marker:none;enable-background:accumulate"
     d="M 53 11 L 53 13 L 60 13 L 60 11 L 53 11 z M 53 23 L 53 25 L 60 25 L 60 23 L 53 23 z M 53 35 L 53 37 L 58.072266 37 L 60 35.886719 L 60 35 L 53 35 z "
     id="path4338" />
  <path
     style="color:#000000;display:inline;overflow:visible;visibility:visible;fill:#ad67b2;fill-opacity:1;fill-rule:nonzero;stroke:none;stroke-width:2.28571415;marker:none;enable-background:accumulate"
     d="M 4 35 L 4 37 L 11 37 L 11 35 L 4 35 z M 4 47 L 4 49 L 11 49 L 11 47 L 4 47 z M 4 59 L 4 61 L 11 61 L 11 59 L 4 59 z "
     id="path4334" />
  <path
     style="fill:#6bd9d8;fill-opacity:1;fill-rule:nonzero"
     d="M 0,1 0,4 2,2 Z"
     id="path4298-6"
     inkscape:connector-curvature="0"
     sodipodi:nodetypes="cccc" />
  <path
     id="path4606"
     d="M 58.158203,0 54.693359,2 64,2 64,1 62,0 58.158203,0 Z"
     style="color:#000000;display:inline;overflow:visible;visibility:visible;opacity:1;fill:#5b95da;fill-opacity:1;fill-rule:nonzero;stroke:none;stroke-width:2.28571415;stroke-linecap:butt;stroke-linejoin:miter;stroke-miterlimit:4;stroke-dasharray:none;stroke-dashoffset:0;stroke-opacity:1;marker:none;enable-background:accumulate"
     inkscape:connector-curvature="0" />
  <path
     d="M 64,4 62,2 64,1 Z"
     id="path3028-7"
     style="fill:#527fb5;fill-opacity:1"
     inkscape:connector-curvature="0"
     sodipodi:nodetypes="cccc" />
  <g
     id="g3043"
     inkscape:export-filename="folder.png"
     inkscape:export-xdpi="90"
     inkscape:export-ydpi="90"
     transform="translate(73.267655,0.082283)" />
  <g
     id="scalable"
     transform="matrix(1.0385892,0,0,1.0385892,1288.6149,1878.8121)"
     inkscape:label="#g3701"
     style="fill:#ffffff" />
  <path
     id="path3999"
     d="m 41.137903,15.752956 c -0.02792,1.571464 -0.464492,2.569717 -0.05956,4.169113 0.823636,3.253221 4.141945,6.579811 4.496687,10.333446 0.329593,3.487684 -0.580017,5.411734 -3.752202,9.588962 l -5.509186,1.488969 C 51.136713,33.494331 42.104564,25.177764 38.81511,23.852948 l -6.581244,16.676455 c -2.225668,3.40061 -5.288561,5.717641 -8.993374,5.717641 -3.704815,0 -6.87904,-2.577789 -6.87904,-5.717641 0,-3.139843 3.24576,-5.717642 6.87904,-5.717642 3.633276,0 5.959603,2.362721 6.462127,3.811761 L 39.053345,16.52722 z"
     style="color:#000000;fill:#d6e8ee;fill-opacity:1;fill-rule:nonzero;stroke:none;stroke-width:1;marker:none;visibility:visible;display:inline;overflow:visible;enable-background:accumulate"
     inkscape:connector-curvature="0"
     sodipodi:nodetypes="cssccccsssccc" />
</svg>

<svg xmlns="http://www.w3.org/2000/svg" viewBox="0 0 64 64"><g color="#000"><path d="m2 0l-2 1v1h32 32v-1l-2-1h-30" fill="#42b8b7"/><path d="m0 2v32 28l2 2h30 30l2-2v-28-32h-32zm4 3h7v8h-7zm49 0h7v8h-7zm-49 12h7v8h-7zm49 0h7v8h-7zm-49 12h7v8h-7zm49 0h7v8h-7zm-49 12h7v8h-7zm49 0h7v8h-7zm-49 12h7v8h-7zm49 0h7v8h-7z" fill="#3e6782"/><path d="m58.16 0l-3.465 2-46.766 27h3.072v6h-7v-3.732l-4 2.311v.422 28l2 2h9.307l46.766-27 1.928-1.113 4-2.309v-31.578-1l-2-1h-3.842m-5.158 5h7v6h-7v-6zm0 12h7v6h-7v-6m0 12h7v6h-7v-6m-49 12h7v6h-7v-6m0 12h7v6h-7v-6" fill="#d57e39"/><path d="m20.424 21.785l-12.496 7.215h3.072v8h-7v-5.732l-4 2.311v.422 28l2 2h9.307l33.02-19.06-23.898-23.15m-16.424 19.215h7v8h-7v-8m0 12h7v8h-7v-8" fill="#7a567c"/><path d="m54.693 2l-34.27 19.785 23.898 23.15 13.75-7.938h-5.072v-8h7v6.887l4-2.309v-31.578h-9.307m-1.693 3h7v8h-7v-8m0 12h7v8h-7v-8" fill="#645bb8"/><path d="m0 2v31.578l4-2.311v-2.268h3.928l12.496-7.215-11.133-10.785h-5.291v-5.125l-4-3.875m4 15h7v6h-7v-6" fill="#4f706b"/><path d="m0 2l4 3.875v-.875h7v7.656l9.424 9.129 34.27-19.785h-22.693-32" fill="#467e84"/><path d="m44.32 44.938l-33.02 19.06h50.693l.984-.984-4.146-4.02h-5.838v-5.656l-8.678-8.406" fill="#5e4f8f"/><path d="m64 33.578l-4 2.309v1.113h-1.928l-13.75 7.938 8.678 8.406v-.344h7v7.125l2.984 2.891 1.016-1.016v-28-.422m-11 7.422h7v8h-7v-8" fill="#7d46a5"/><path d="m4 11v2h7v-2h-7m0 12v2h7v-2h-7" fill="#50978c"/><path d="m60 35.887l-1.928 1.113h1.928v-1.113m-7 11.11v2h7v-2h-7" fill="#ba6ee2"/><path d="m53 59v2h7v-2h-7" fill="#8562d1"/><path d="m53 11v2h7v-2h-7m0 12v2h7v-2h-7m0 12v2h5.072l1.928-1.113v-.887h-7" fill="#5b95da"/><path d="m4 35v2h7v-2h-7m0 12v2h7v-2h-7m0 12v2h7v-2h-7" fill="#ad67b2"/></g><path d="m0 1v3l2-2" fill="#6bd9d8"/><path d="m58.16 0l-3.465 2h9.307v-1l-2-1h-3.842" color="#000" fill="#5b95da"/><path d="m64 4l-2-2 2-1" fill="#527fb5"/><path d="m41.14 15.753c-.028 1.571-.464 2.57-.06 4.169.824 3.253 4.142 6.58 4.497 10.333.33 3.488-.58 5.412-3.752 9.589l-5.509 1.489c14.823-7.839 5.791-16.16 2.501-17.48l-6.581 16.676c-2.226 3.401-5.289 5.718-8.993 5.718-3.705 0-6.879-2.578-6.879-5.718 0-3.14 3.246-5.718 6.879-5.718 3.633 0 5.96 2.363 6.462 3.812l9.351-22.1z" fill="#d6e8ee" color="#000"/></svg>
